X:14
T: Betyár gyerek az erdőbe
O: Bugas-Alsómonostor (Bács-Kiskun), Fehér Józsefné - Kerekes Julianna (57), 1952.12
M:2/4
L:1/8
Q:"Parlando" 1/4=70
K:G
AAAA | BAFHG | 
AAdd | cBAHA | 
dAdc | BAFHG | 
A(F{/G})AG | FDHEHD | 

